X:1
T:25 Lieder
T:Manchen langen Tag
T:9. Manchen langen Tag 
T:Corona Elisabeth Wilhelmine Schröter
T:Anonymous
T:25 Lieder
T:NOTES TO TRANSCRIBER: 1. Full German text for the extra lyric verses of Manchen langen Tag is not yet available on Lieder.net: instead please message reviewer DanielR to ask for an electronic version of the lyrics. 2. Please transcribe into the Soprano clef, as published in the original IMSLP edition: the reviewer will convert staves to Treble clef before the score is published to the Lieder Corpus. 3. In the Piano RH, you can notate the two voices as a chord in a single voice where the rhythm is the same in both voices. 4. System breaks have been changed deliberately to provide a more sensible layout. 
T:Creative Commons copyright waiver (CC0 1.0 Universal)
C:Corona Elisabeth Wilhelmine Schröter
Z:Anonymous
Z:Creative Commons copyright waiver (CC0 1.0 Universal)
L:1/8
Q:1/4=92
M:2/2
K:Bb
V:1 alto1 nm="Singstimme\nVoice"
V:1
"^Zärtlich, doch nicht ganz langsam" (ed) (cB) B2 c2 |{c} d4 z2 (de) |{g} f2 (ed) (cd) (cB) | %3
w: Man- * chen * lan- gen|Tag, und *|man- che * lan- * ge *|
 (B4 A) z (cA) | B2 (Ae) (ed) (cA) | B2 (Ae) (ed) (c=B) | (_Bc) (dc) (ge) (cB) |{B} A4 z4 | %8
w: Nacht, * hab' *|ich an * Dich * ge- *|dacht, hab' * ich * um *|Dich * um * Dich * durch- *|wacht;|
{f} e2 (de) c2 c2 | e3 d (cB) AB |{A} G4- (GB) (Ac) |{c} B4 z4 |] %12
w: lan- ger, * lan- ger|Tag, o lan- * ge, *|lan- * * ge *|Nacht!|

